X: 203
T:Rights of Man, The
Z:Leo Rowsome's setting, from his uilleann pipe tutor.
N: page 67
N: heptatonic
N: matches 56
M:4/4
E:6.5
R:hornpipe
K:Emin
GA|"Em"BcAB GAFG|EFGA B2ef|gfed Bgfg|\
"Am"(3ege dB "B7"A2GA|"Em"BcAB GAFG|
EFGA B2ef|"Am"gfed "B7"BA (3Bcd|"Em"e2 E2 E2:|\
ga|"Em"babg efga|babg egfe|
"D" dAFA d^cdf|afdf a2 gf|"Em"edef "D"gfga |\
"G"(3bag af g2ef|"Am"gfed "B7"BA  (3Bcd|"Em"e2 E2 E2:|
